X: 27839
T: Mother Of Dragons, The
R: jig
M: 6/8
K: Bminor
~B3 fBg|gfe fBB|~B3 fBg|gfe ~c3|
~B3 fBg|gfe f2B|GBd Ace|edA B3:|
|:EGB dfa|agf gfd|EGB dfa|agf e3|
EGB dfa|agf gfd|GBd Ace|edA B3:|

